X:210
T: Molly Brallaghan
S: "Roche Collection of Traditional Irish Music" [I/50/121]
L: 1/8
M: 6/8
R: jig
K: G
B | cec BdB | AGA BEG | GED DEG | AGA BGE |
cec BdB | AGA BEG | GED DEG | BcA G2 :|
B/A/ | GBd def | gfg dBG | cec BdB | AGA BGE |
gag gdB | AGA BGE | GED DEG | BcA G2 :|
